build/svg/cmd/lc_firstrecord.svg

<?xml version="1.0" encoding="UTF-8" standalone="no"?>
<svg
   xmlns:dc="http://purl.org/dc/elements/1.1/"
   xmlns:cc="http://creativecommons.org/ns#"
   xmlns:rdf="http://www.w3.org/1999/02/22-rdf-syntax-ns#"
   xmlns:svg="http://www.w3.org/2000/svg"
   xmlns="http://www.w3.org/2000/svg"
   xmlns:sodipodi="http://sodipodi.sourceforge.net/DTD/sodipodi-0.dtd"
   xmlns:inkscape="http://www.inkscape.org/namespaces/inkscape"
   viewBox="0 0 24 24"
   version="1.1"
   id="svg4"
   sodipodi:docname="lc_firstrecord.svg"
   inkscape:version="0.92.5 (2060ec1f9f, 2020-04-08)"
   inkscape:export-filename="/home/jupiter007/Libreoffice yaru theme fullcolor/build/cmd/lc_firstrecord.png"
   inkscape:export-xdpi="95"
   inkscape:export-ydpi="95">
  <metadata
     id="metadata10">
    <rdf:RDF>
      <cc:Work
         rdf:about="">
        <dc:format>image/svg+xml</dc:format>
        <dc:type
           rdf:resource="http://purl.org/dc/dcmitype/StillImage" />
      </cc:Work>
    </rdf:RDF>
  </metadata>
  <defs
     id="defs8" />
  <sodipodi:namedview
     pagecolor="#ffffff"
     bordercolor="#666666"
     borderopacity="1"
     objecttolerance="10"
     gridtolerance="10"
     guidetolerance="10"
     inkscape:pageopacity="0"
     inkscape:pageshadow="2"
     inkscape:window-width="1920"
     inkscape:window-height="1011"
     id="namedview6"
     showgrid="true"
     inkscape:zoom="27.812867"
     inkscape:cx="3.0022613"
     inkscape:cy="10.617471"
     inkscape:window-x="0"
     inkscape:window-y="32"
     inkscape:window-maximized="1"
     inkscape:current-layer="svg4">
    <inkscape:grid
       type="xygrid"
       id="grid826" />
  </sodipodi:namedview>
  <path
     style="opacity:0.6;fill:#000000;stroke:#000000;stroke-width:3;stroke-linejoin:round;stroke-miterlimit:4;stroke-dasharray:none"
     id="path817"
     d="m 6.5,3.5 v 16 h 1 V 3.5 Z M 17.849609,3.5 12.222656,9.625 10.5,11.5 12.222656,13.375 17.849609,19.5 18.5,18.792969 12.873047,12.667969 11.798828,11.5 12.873047,10.332031 18.5,4.2070312 Z"
     inkscape:connector-curvature="0" />
  <path
     d="m 6.5,3.5 v 16 h 1 V 3.5 Z M 17.849609,3.5 12.222656,9.625 10.5,11.5 12.222656,13.375 17.849609,19.5 18.5,18.792969 12.873047,12.667969 11.798828,11.5 12.873047,10.332031 18.5,4.2070312 Z"
     id="path2"
     style="fill:#ffffff;stroke:#ffffff;stroke-linejoin:round"
     inkscape:connector-curvature="0" />
</svg>

<svg xmlns="http://www.w3.org/2000/svg" viewBox="0 0 24 24"><path d="M6.5 3.5v16h1v-16zm11.35 0l-5.627 6.125L10.5 11.5l1.723 1.875L17.85 19.5l.65-.707-5.627-6.125-1.074-1.168 1.074-1.168L18.5 4.207z" opacity=".6" stroke="#000" stroke-width="3" stroke-linejoin="round"/><path d="M6.5 3.5v16h1v-16zm11.35 0l-5.627 6.125L10.5 11.5l1.723 1.875L17.85 19.5l.65-.707-5.627-6.125-1.074-1.168 1.074-1.168L18.5 4.207z" fill="#fff" stroke="#fff" stroke-linejoin="round"/></svg>
